X: 14118
T: Frieze Breeches, The
R: jig
M: 6/8
K: Dmajor
FED EFG|A2 d =cAG|A^GA BA=G|F/G/AF GFE|
FED EFG|A2 B =cAG|FAF GEC|DED D2:|
d2 e fed|e2 d =cAG|A^GA BA=G|FAF GED|
d2 e ff/e/d|e2 d =cAG|F2 F GEA|DED ~D2:|
DED =c3|AdB =cAG|ABc d2 e|fed =cAF|
DED =cBc|A2 d =cAG|F/G/AF GEC|DED D2:|
d2 e fdd|Add fed|c2 d eAA|fAA gec|
d2 e fdd|add fed|f/g/af gec|ded d2:|
fed edc|ded =cAG|A^GA BA=G|FAF GED|
fed e2c|ded =cAG|FAF GEC|DED D2:|
fd/e/f ece|ded =cAG|A2 A BAG|F/G/AF GEc|
f/g/af ge/f/g|afd cAG|F/G/AF GEA|DF/E/D D2||

